images/ctoken-usdc.svg

<svg height="250" viewBox="0 0 250 250" width="250" xmlns="http://www.w3.org/2000/svg" xmlns:xlink="http://www.w3.org/1999/xlink"><linearGradient id="a" gradientTransform="scale(.976562 .972763)" gradientUnits="userSpaceOnUse" x1="96.456398" x2="136.022003" y1="15.5724" y2="234.931"><stop offset="0" stop-color="#27d3a2"/><stop offset="1" stop-color="#9388fd"/></linearGradient><path d="m247.617188 113c6.710937 67.457031-42.75 127.558594-110.46875 134.242188-67.71875 6.683593-128.054688-42.582032-134.765626-110.039063-6.710937-67.457031 42.75-127.558594 110.46875-134.242187 67.71875-6.683594 128.054688 42.582031 134.765626 110.039062zm0 0" fill="#f9fafb"/><path d="m203.222656 219.933594c-18.828125 15.410156-41.824218 24.914062-66.074218 27.308594-32.519532 3.207031-64.988282-6.582032-90.261719-27.21875-25.273438-20.636719-41.28125-50.425782-44.503907-82.820313-2.4023432-24.15625 2.441407-48.480469 13.914063-69.898437 11.476563-21.414063 29.070313-38.960938 50.554687-50.414063 21.488282-11.457031 45.898438-16.308594 70.15625-13.941406 24.253907 2.363281 47.257813 11.839843 66.105469 27.230469l-24.855469 30.203124c-12.851562-10.496093-28.535156-16.957031-45.070312-18.566406-16.539062-1.613281-33.183594 1.695313-47.832031 9.503906-14.652344 7.8125-26.644531 19.773438-34.46875 34.375-7.824219 14.601563-11.128907 31.1875-9.488281 47.65625 2.195312 22.085938 13.109374 42.398438 30.34375 56.46875 17.230468 14.070313 39.367187 20.746094 61.539062 18.558594 16.539062-1.632812 32.214844-8.113281 45.054688-18.621094zm0 0" fill="url(#a)"/><path d="m125 226.269531c56.09375 0 101.5625-45.292969 101.5625-101.167969s-45.46875-101.167968-101.5625-101.167968c-56.089844 0-101.5625 45.292968-101.5625 101.167968s45.472656 101.167969 101.5625 101.167969zm0 0" fill="#fff"/><path d="m145.164062 135.785156c0-10.742187-6.679687-14.363281-19.601562-16.09375-9.550781-1.351562-11.382812-3.546875-11.382812-7.902344 0-4.359374 3.226562-7.074218 9.40625-7.074218 5.632812 0 8.875 1.917968 10.210937 6.351562.140625.484375.4375.914063.847656 1.21875.410157.308594.910157.476563 1.425781.484375h4.9375c.324219.007813.644532-.054687.9375-.183593.296876-.128907.558594-.320313.769532-.558594.210937-.238282.367187-.519532.453125-.824219.085937-.304687.105469-.625.050781-.933594-1.566406-7.011719-6.398438-11.234375-13.96875-12.550781v-7.398438c0-.609374-.25-1.195312-.691406-1.625-.441406-.433593-1.039063-.675781-1.664063-.675781h-4.703125c-.625 0-1.222656.242188-1.664062.675781-.441406.429688-.6875 1.015626-.6875 1.625v7.136719c-9.410156 1.289063-15.355469 7.363281-15.355469 15.160157 0 10.078124 6.273437 13.992187 19.382813 15.726562 8.925781 1.425781 11.464843 3.3125 11.464843 8.269531s-4.3125 8.285157-10.394531 8.285157c-8.203125 0-10.980469-3.511719-11.90625-8.070313-.105469-.523437-.394531-.996094-.8125-1.335937-.421875-.339844-.945312-.527344-1.492188-.535157h-5.359374c-.320313-.003906-.640626.0625-.929688.195313-.289062.128906-.550781.320312-.757812.558594-.207032.238281-.359376.519531-.445313.820312s-.101563.617188-.046875.925781c1.363281 7.671875 6.394531 13.289063 16.652344 14.636719v7.273438c0 .609374.246094 1.195312.6875 1.628906.441406.429687 1.039062.671875 1.664062.671875h4.703125c.625 0 1.222657-.242188 1.664063-.671875.441406-.433594.691406-1.019532.691406-1.628906v-7.273438c9.71875-1.503906 15.914062-8.070312 15.914062-16.308594zm0 0" fill="#283947"/><g fill="#657786"><path d="m109.546875 168.839844c-8.96875-3.230469-16.710937-9.101563-22.179687-16.824219-5.46875-7.71875-8.402344-16.914063-8.402344-26.332031 0-9.421875 2.933594-18.613282 8.402344-26.335938 5.46875-7.71875 13.210937-13.59375 22.179687-16.824218.574219-.25 1.066406-.652344 1.421875-1.164063.351562-.511719.554688-1.109375.578125-1.730469v-4.289062c.039063-.378906-.027344-.761719-.1875-1.109375-.160156-.347657-.410156-.644531-.722656-.867188-.316407-.222656-.683594-.359375-1.066407-.394531-.386718-.039062-.773437.023438-1.125.183594-11.292968 3.550781-21.144531 10.554687-28.136718 19.996094-6.992188 9.445312-10.761719 20.839843-10.761719 32.535156 0 11.695312 3.769531 23.089844 10.761719 32.53125 6.992187 9.445312 16.84375 16.449218 28.136718 20 .351563.15625.738282.21875 1.125.183594.382813-.039063.75-.171876 1.066407-.398438.3125-.21875.5625-.519531.722656-.867188.160156-.347656.226563-.730468.1875-1.109374v-4.289063c-.023437-.617187-.226563-1.21875-.578125-1.730469-.355469-.511718-.847656-.914062-1.421875-1.164062zm0 0"/><path d="m141.554688 73.152344c-.351563-.160156-.738282-.222656-1.125-.183594-.382813.035156-.75.171875-1.066407.394531-.3125.222657-.5625.519531-.722656.867188-.160156.347656-.226563.730469-.1875 1.109375v4.289062c.023437.621094.226563 1.21875.578125 1.730469.355469.511719.847656.914063 1.421875 1.164063 8.96875 3.230468 16.710937 9.105468 22.179687 16.824218 5.46875 7.722656 8.402344 16.914063 8.402344 26.335938 0 9.417968-2.933594 18.613281-8.402344 26.332031-5.46875 7.722656-13.210937 13.59375-22.179687 16.824219-.59375.222656-1.101563.621094-1.460937 1.136718-.359376.519532-.546876 1.132813-.539063 1.757813v4.289063c-.039063.378906.027344.761718.1875 1.109374.160156.347657.410156.648438.722656.867188.316407.226562.683594.359375 1.066407.398438.386718.035156.773437-.027344 1.125-.183594 11.292968-3.550782 21.144531-10.554688 28.136718-20 6.992188-9.441406 10.761719-20.835938 10.761719-32.53125 0-11.695313-3.769531-23.089844-10.761719-32.535156-6.992187-9.441407-16.84375-16.445313-28.136718-19.996094zm0 0"/></g></svg>

<svg xmlns="http://www.w3.org/2000/svg" xmlns:xlink="http://www.w3.org/1999/xlink" width="250px" height="250px" viewBox="0 0 250 250" version="1.1">
<defs>
<linearGradient id="linear0" gradientUnits="userSpaceOnUse" x1="96.456398" y1="15.5724" x2="136.022003" y2="234.931" gradientTransform="matrix(0.976562,0,0,0.972763,0,0)">
<stop offset="0" style="stop-color:rgb(15.294118%,82.745099%,63.529414%);stop-opacity:1;"/>
<stop offset="1" style="stop-color:rgb(57.647061%,53.333336%,99.215686%);stop-opacity:1;"/>
</linearGradient>
</defs>
<g id="surface1">
<path style=" stroke:none;fill-rule:nonzero;fill:rgb(97.647059%,98.039216%,98.431373%);fill-opacity:1;" d="M 247.617188 113 C 254.328125 180.457031 204.867188 240.558594 137.148438 247.242188 C 69.429688 253.925781 9.09375 204.660156 2.382812 137.203125 C -4.328125 69.746094 45.132812 9.644531 112.851562 2.960938 C 180.570312 -3.722656 240.90625 45.542969 247.617188 113 Z M 247.617188 113 "/>
<path style=" stroke:none;fill-rule:nonzero;fill:url(#linear0);" d="M 203.222656 219.933594 C 184.394531 235.34375 161.398438 244.847656 137.148438 247.242188 C 104.628906 250.449219 72.160156 240.660156 46.886719 220.023438 C 21.613281 199.386719 5.605469 169.597656 2.382812 137.203125 C -0.0195312 113.046875 4.824219 88.722656 16.296875 67.304688 C 27.773438 45.890625 45.367188 28.34375 66.851562 16.890625 C 88.339844 5.433594 112.75 0.582031 137.007812 2.949219 C 161.261719 5.3125 184.265625 14.789062 203.113281 30.179688 L 178.257812 60.382812 C 165.40625 49.886719 149.722656 43.425781 133.1875 41.816406 C 116.648438 40.203125 100.003906 43.511719 85.355469 51.320312 C 70.703125 59.132812 58.710938 71.09375 50.886719 85.695312 C 43.0625 100.296875 39.757812 116.882812 41.398438 133.351562 C 43.59375 155.4375 54.507812 175.75 71.742188 189.820312 C 88.972656 203.890625 111.109375 210.566406 133.28125 208.378906 C 149.820312 206.746094 165.496094 200.265625 178.335938 189.757812 Z M 203.222656 219.933594 "/>
<path style=" stroke:none;fill-rule:nonzero;fill:rgb(100%,100%,100%);fill-opacity:1;" d="M 125 226.269531 C 181.09375 226.269531 226.5625 180.976562 226.5625 125.101562 C 226.5625 69.226562 181.09375 23.933594 125 23.933594 C 68.910156 23.933594 23.4375 69.226562 23.4375 125.101562 C 23.4375 180.976562 68.910156 226.269531 125 226.269531 Z M 125 226.269531 "/>
<path style=" stroke:none;fill-rule:nonzero;fill:rgb(15.686275%,22.352941%,27.843139%);fill-opacity:1;" d="M 145.164062 135.785156 C 145.164062 125.042969 138.484375 121.421875 125.5625 119.691406 C 116.011719 118.339844 114.179688 116.144531 114.179688 111.789062 C 114.179688 107.429688 117.40625 104.714844 123.585938 104.714844 C 129.21875 104.714844 132.460938 106.632812 133.796875 111.066406 C 133.9375 111.550781 134.234375 111.980469 134.644531 112.285156 C 135.054688 112.59375 135.554688 112.761719 136.070312 112.769531 L 141.007812 112.769531 C 141.332031 112.777344 141.652344 112.714844 141.945312 112.585938 C 142.242188 112.457031 142.503906 112.265625 142.714844 112.027344 C 142.925781 111.789062 143.082031 111.507812 143.167969 111.203125 C 143.253906 110.898438 143.273438 110.578125 143.21875 110.269531 C 141.652344 103.257812 136.820312 99.035156 129.25 97.71875 L 129.25 90.320312 C 129.25 89.710938 129 89.125 128.558594 88.695312 C 128.117188 88.261719 127.519531 88.019531 126.894531 88.019531 L 122.191406 88.019531 C 121.566406 88.019531 120.96875 88.261719 120.527344 88.695312 C 120.085938 89.125 119.839844 89.710938 119.839844 90.320312 L 119.839844 97.457031 C 110.429688 98.746094 104.484375 104.820312 104.484375 112.617188 C 104.484375 122.695312 110.757812 126.609375 123.867188 128.34375 C 132.792969 129.769531 135.332031 131.65625 135.332031 136.613281 C 135.332031 141.570312 131.019531 144.898438 124.9375 144.898438 C 116.734375 144.898438 113.957031 141.386719 113.03125 136.828125 C 112.925781 136.304688 112.636719 135.832031 112.21875 135.492188 C 111.796875 135.152344 111.273438 134.964844 110.726562 134.957031 L 105.367188 134.957031 C 105.046875 134.953125 104.726562 135.019531 104.4375 135.152344 C 104.148438 135.28125 103.886719 135.472656 103.679688 135.710938 C 103.472656 135.949219 103.320312 136.230469 103.234375 136.53125 C 103.148438 136.832031 103.132812 137.148438 103.1875 137.457031 C 104.550781 145.128906 109.582031 150.746094 119.839844 152.09375 L 119.839844 159.367188 C 119.839844 159.976562 120.085938 160.5625 120.527344 160.996094 C 120.96875 161.425781 121.566406 161.667969 122.191406 161.667969 L 126.894531 161.667969 C 127.519531 161.667969 128.117188 161.425781 128.558594 160.996094 C 129 160.5625 129.25 159.976562 129.25 159.367188 L 129.25 152.09375 C 138.96875 150.589844 145.164062 144.023438 145.164062 135.785156 Z M 145.164062 135.785156 "/>
<path style=" stroke:none;fill-rule:nonzero;fill:rgb(39.607844%,46.666667%,52.549022%);fill-opacity:1;" d="M 109.546875 168.839844 C 100.578125 165.609375 92.835938 159.738281 87.367188 152.015625 C 81.898438 144.296875 78.964844 135.101562 78.964844 125.683594 C 78.964844 116.261719 81.898438 107.070312 87.367188 99.347656 C 92.835938 91.628906 100.578125 85.753906 109.546875 82.523438 C 110.121094 82.273438 110.613281 81.871094 110.96875 81.359375 C 111.320312 80.847656 111.523438 80.25 111.546875 79.628906 L 111.546875 75.339844 C 111.585938 74.960938 111.519531 74.578125 111.359375 74.230469 C 111.199219 73.882812 110.949219 73.585938 110.636719 73.363281 C 110.320312 73.140625 109.953125 73.003906 109.570312 72.96875 C 109.183594 72.929688 108.796875 72.992188 108.445312 73.152344 C 97.152344 76.703125 87.300781 83.707031 80.308594 93.148438 C 73.316406 102.59375 69.546875 113.988281 69.546875 125.683594 C 69.546875 137.378906 73.316406 148.773438 80.308594 158.214844 C 87.300781 167.660156 97.152344 174.664062 108.445312 178.214844 C 108.796875 178.371094 109.183594 178.433594 109.570312 178.398438 C 109.953125 178.359375 110.320312 178.226562 110.636719 178 C 110.949219 177.78125 111.199219 177.480469 111.359375 177.132812 C 111.519531 176.785156 111.585938 176.402344 111.546875 176.023438 L 111.546875 171.734375 C 111.523438 171.117188 111.320312 170.515625 110.96875 170.003906 C 110.613281 169.492188 110.121094 169.089844 109.546875 168.839844 Z M 109.546875 168.839844 "/>
<path style=" stroke:none;fill-rule:nonzero;fill:rgb(39.607844%,46.666667%,52.549022%);fill-opacity:1;" d="M 141.554688 73.152344 C 141.203125 72.992188 140.816406 72.929688 140.429688 72.96875 C 140.046875 73.003906 139.679688 73.140625 139.363281 73.363281 C 139.050781 73.585938 138.800781 73.882812 138.640625 74.230469 C 138.480469 74.578125 138.414062 74.960938 138.453125 75.339844 L 138.453125 79.628906 C 138.476562 80.25 138.679688 80.847656 139.03125 81.359375 C 139.386719 81.871094 139.878906 82.273438 140.453125 82.523438 C 149.421875 85.753906 157.164062 91.628906 162.632812 99.347656 C 168.101562 107.070312 171.035156 116.261719 171.035156 125.683594 C 171.035156 135.101562 168.101562 144.296875 162.632812 152.015625 C 157.164062 159.738281 149.421875 165.609375 140.453125 168.839844 C 139.859375 169.0625 139.351562 169.460938 138.992188 169.976562 C 138.632812 170.496094 138.445312 171.109375 138.453125 171.734375 L 138.453125 176.023438 C 138.414062 176.402344 138.480469 176.785156 138.640625 177.132812 C 138.800781 177.480469 139.050781 177.78125 139.363281 178 C 139.679688 178.226562 140.046875 178.359375 140.429688 178.398438 C 140.816406 178.433594 141.203125 178.371094 141.554688 178.214844 C 152.847656 174.664062 162.699219 167.660156 169.691406 158.214844 C 176.683594 148.773438 180.453125 137.378906 180.453125 125.683594 C 180.453125 113.988281 176.683594 102.59375 169.691406 93.148438 C 162.699219 83.707031 152.847656 76.703125 141.554688 73.152344 Z M 141.554688 73.152344 "/>
</g>
</svg>
